images/icones/icone-facebook.svg

<svg width="36" height="36" viewBox="0 0 36 36" fill="none" xmlns="http://www.w3.org/2000/svg">
<path d="M18 3C9.7155 3 3 9.7155 3 18C3 25.5195 8.5395 31.7295 15.7575 32.814V21.975H12.0465V18.0315H15.7575V15.408C15.7575 11.064 17.874 9.1575 21.4845 9.1575C23.214 9.1575 24.1275 9.285 24.561 9.3435V12.7845H22.098C20.565 12.7845 20.0295 14.238 20.0295 15.876V18.0315H24.522L23.913 21.975H20.031V32.8455C27.3525 31.854 33 25.593 33 18C33 9.7155 26.2845 3 18 3Z" fill="#656565"/>
</svg>

<svg width="36" height="36" fill="none" xmlns="http://www.w3.org/2000/svg"><path d="M18 3C9.716 3 3 9.716 3 18c0 7.52 5.54 13.73 12.758 14.814V21.975h-3.711v-3.944h3.71v-2.623c0-4.344 2.117-6.25 5.728-6.25 1.729 0 2.643.127 3.076.186v3.44h-2.463c-1.533 0-2.069 1.454-2.069 3.092v2.156h4.493l-.609 3.943h-3.882v10.87C27.353 31.855 33 25.594 33 18c0-8.284-6.715-15-15-15Z" fill="#656565"/></svg>
